public/icons/logo-white.svg

<svg width="119" height="138" viewBox="0 0 119 138" fill="none" xmlns="http://www.w3.org/2000/svg">
<path d="M59.9332 91.1562H51.9633H51.6445L60.8896 117.743V137.367H68.8595V117.743L77.467 91.1562H69.4971L64.7152 108.565L59.9332 91.1562Z" fill="#FBFBFB"/>
<path d="M87.6687 90.8398H80.0176V103.184L87.6687 99.0692V90.8398Z" fill="#FBFBFB"/>
<path d="M113.81 0.324219H93.4072V47.8013L113.81 41.7875V34.1912L101.058 37.6728V26.5949H111.897V19.9481H101.058V6.65449H113.81V0.324219Z" fill="#FBFBFB"/>
<path d="M60.2528 0.324219H53.2393V58.4082L60.2528 56.3391V0.324219Z" fill="#FBFBFB"/>
<path d="M22.9536 13.9264H16.2589C16.2589 13.9264 16.224 11.8862 16.224 10.8898C16.224 9.94029 15.9052 7.40818 12.3985 7.09166C8.8917 6.77515 6.0574 11.3943 7.93531 16.2706C10.4857 19.4357 15.4589 20.7651 18.7744 22.2843C22.0899 23.8036 23.1313 26.9265 23.2375 28.2981V66.1512L0.284204 72.7979L0.284203 34.3118H6.97892V62.1651L15.9052 59.6329V28.9311C13.0998 27.4118 6.3761 24.6879 4.46275 23.1053C-2.55073 16.4585 -0.35325 5.50909 5.06558 2.02717C9.20993 -0.504741 13.6731 -0.821225 18.455 2.02717C22.564 4.47469 23.5912 9.49519 22.9536 13.9264Z" fill="#FBFBFB"/>
<path d="M113.456 103.937L106.762 103.938V101.405C106.762 100.456 106.443 97.9238 102.936 97.6073C99.4295 97.2908 95.9228 101.722 98.4731 106.786C101.023 109.951 105.997 111.281 109.312 112.8C112.628 114.319 113.669 117.442 113.775 118.814V129.138C113.81 131.037 109.602 137.684 102.971 137.684C96.3402 137.684 95.32 136.418 95.32 136.418C94.0448 135.679 90.7931 132.873 90.5381 130.088V124.074H97.5516C97.3391 126.289 97.9342 130.721 102.015 130.721C106.095 130.721 106.478 127.556 106.478 125.656C106.478 125.656 106.797 119.959 106.478 119.643C106.16 119.328 105.522 119.01 105.522 119.01C102.716 117.49 97.5167 115.332 95.6034 113.749C87.6341 106.153 90.1846 96.0247 95.6034 92.5428C99.7477 90.0109 104.211 89.6944 108.993 92.5428C113.102 94.9903 113.775 100.983 113.456 103.937Z" fill="#FBFBFB"/>
<path d="M35.386 0.324219H28.3725H28.0537L28.3725 65.518L49.0943 59.1877V34.5077H41.7619V53.182L35.386 54.7646V0.324219Z" fill="#FBFBFB"/>
<path d="M80.6553 13.6181H87.6688C87.9876 8.2371 86.3936 -0.298135 76.511 0.00801413C68.3498 0.260835 65.9907 6.02242 65.6719 9.65546V55.0734L87.35 48.7431L87.6688 34.508H80.3365V42.7374L72.6854 44.953V13.6181C72.6854 10.7701 73.0042 6.65544 76.8297 6.65544C80.6553 6.65544 80.7616 11.297 80.6553 13.6181Z" fill="#FBFBFB"/>
<path fill-rule="evenodd" clip-rule="evenodd" d="M93.1771 53.1814L99.8719 50.9658C100.297 53.1814 101.338 57.6759 102.103 57.9291C102.869 58.1823 104.671 55.7135 105.522 54.4475L105.61 51.5988V49.6998L111.667 48.1172C111.88 50.2273 112.05 54.764 111.03 56.03C110.01 57.2961 106.567 61.1998 104.973 62.9933L111.03 71.2227L115.174 67.4245L119 71.5392L113.58 76.9199L119 84.5163H111.349L109.436 81.6676C108.479 82.7227 105.546 84.8961 101.466 85.1493C97.3853 85.4025 93.8146 81.9842 92.2206 79.1355C90.9452 75.9704 90.3079 70.2732 93.4959 66.7915L97.3212 62.3603C96.0462 60.0392 93.4324 54.9539 93.1771 53.1814ZM100.629 67.108L106.686 75.9704C106.048 77.2365 104.199 79.7053 101.904 79.452C99.6086 79.1988 98.1893 77.553 97.8708 76.2869C97.8507 76.0712 97.8253 75.8526 97.7995 75.6295C97.5599 73.5604 97.2759 71.1079 100.629 67.108Z" fill="#FBFBFB"/>
<path fill-rule="evenodd" clip-rule="evenodd" d="M0 90.8464V138.001H13.2601C14.8772 138.001 21.3455 135.094 22.3157 128.957V100.213C21.9923 97.1982 19.3403 91.0402 11.3196 90.5234H0V90.8464ZM7.65111 98.1312C9.65105 98.028 13.7031 98.5648 13.9118 101.538C14.1205 104.511 13.9988 119.708 13.9118 126.934C13.7379 128.276 12.2423 130.837 7.65111 130.341V98.1312Z" fill="#FBFBFB"/>
<path fill-rule="evenodd" clip-rule="evenodd" d="M28.0537 91.1562H42.7183C45.2687 91.6911 50.3694 94.1086 50.3694 99.4999V108.164C50.3694 110.464 48.7755 114.711 44.9499 116.508L52.2822 137.367H44.3123L38.8928 118.434H35.0672L34.7484 137.367H28.0537V91.1562ZM34.4297 97.6318V111.413C40.6162 111.102 40.9697 111.037 42.3837 108.543C43.7978 106.049 43.4639 101.373 42.6783 100.126C42.6533 100.086 42.6281 100.045 42.6025 100.004C41.8246 98.7578 40.7044 96.9624 34.4297 97.6318Z" fill="#FBFBFB"/>
</svg>

<svg width="119" height="138" fill="none" xmlns="http://www.w3.org/2000/svg"><path d="M59.933 91.156h-8.289l9.246 26.587v19.624h7.97v-19.624l8.607-26.587h-7.97l-4.782 17.409-4.782-17.409ZM87.669 90.84h-7.651v12.344l7.65-4.115v-8.23ZM113.81.324H93.407v47.477l20.403-6.014v-7.596l-12.752 3.482V26.595h10.839v-6.647h-10.839V6.654h12.752V.324ZM60.253.324h-7.014v58.084l7.014-2.069V.324ZM22.954 13.926h-6.695s-.035-2.04-.035-3.036c0-.95-.319-3.482-3.825-3.798-3.507-.317-6.342 4.302-4.464 9.179 2.55 3.165 7.524 4.494 10.84 6.013 3.315 1.52 4.356 4.643 4.463 6.014v37.853L.284 72.798V34.312H6.98v27.853l8.926-2.532V28.93c-2.805-1.52-9.529-4.243-11.442-5.826C-2.551 16.46-.353 5.51 5.066 2.027c4.144-2.532 8.607-2.848 13.389 0 4.109 2.448 5.136 7.468 4.499 11.9ZM113.456 103.937l-6.694.001v-2.533c0-.949-.319-3.481-3.826-3.798-3.507-.316-7.013 4.115-4.463 9.179 2.55 3.165 7.524 4.495 10.839 6.014 3.316 1.519 4.357 4.642 4.463 6.014v10.324c.035 1.899-4.173 8.546-10.804 8.546-6.63 0-7.651-1.266-7.651-1.266-1.275-.739-4.527-3.545-4.782-6.33v-6.014h7.014c-.213 2.215.382 6.647 4.463 6.647 4.08 0 4.463-3.165 4.463-5.065 0 0 .319-5.697 0-6.013-.318-.315-.956-.633-.956-.633-2.806-1.52-8.005-3.678-9.919-5.261-7.969-7.596-5.418-17.724 0-21.206 4.145-2.532 8.608-2.849 13.39 0 4.109 2.447 4.782 8.44 4.463 11.394ZM35.386.324h-7.332l.319 65.194 20.721-6.33v-24.68h-7.332v18.674l-6.376 1.583V.325ZM80.655 13.618h7.014C87.988 8.238 86.394-.298 76.51.008c-8.161.253-10.52 6.014-10.84 9.647v45.418l21.679-6.33.319-14.235h-7.332v8.23l-7.652 2.215V13.618c0-2.848.32-6.963 4.145-6.963 3.825 0 3.932 4.642 3.825 6.963Z" fill="#FBFBFB"/><path fill-rule="evenodd" clip-rule="evenodd" d="m93.177 53.181 6.695-2.215c.425 2.215 1.466 6.71 2.231 6.963.766.253 2.568-2.215 3.419-3.482l.088-2.848v-1.9l6.057-1.582c.213 2.11.383 6.647-.637 7.913s-4.463 5.17-6.057 6.963l6.057 8.23 4.144-3.799L119 71.54l-5.42 5.38 5.42 7.597h-7.651l-1.913-2.848c-.957 1.055-3.89 3.228-7.97 3.481-4.08.254-7.651-3.165-9.245-6.014-1.276-3.165-1.913-8.862 1.275-12.344l3.825-4.43c-1.275-2.322-3.889-7.407-4.144-9.18Zm7.452 13.927 6.057 8.862c-.638 1.267-2.487 3.735-4.782 3.482-2.295-.253-3.715-1.899-4.033-3.165-.02-.216-.046-.434-.072-.658-.24-2.069-.523-4.521 2.83-8.521ZM0 90.846v47.155h13.26c1.617 0 8.086-2.907 9.056-9.044v-28.744c-.324-3.015-2.976-9.173-10.996-9.69H0v.323Zm7.651 7.285c2-.103 6.052.434 6.26 3.407.21 2.973.088 18.17 0 25.396-.173 1.342-1.669 3.903-6.26 3.407v-32.21ZM28.054 91.156h14.664c2.55.535 7.651 2.953 7.651 8.344v8.664c0 2.3-1.593 6.547-5.42 8.344l7.333 20.859h-7.97l-5.42-18.933h-3.825l-.319 18.933h-6.694v-46.21Zm6.376 6.476v13.781c6.186-.311 6.54-.376 7.954-2.87 1.414-2.494 1.08-7.17.294-8.417l-.075-.122c-.778-1.246-1.899-3.042-8.173-2.372Z" fill="#FBFBFB"/></svg>
